X:34
T:GB/7a/34 Tarry Trowsers
%%VWML:GB-7a-34-0
F:http://www.vwml.org/record/GB/7a/34
C:Transcribed by Simon Furey and Lewis Jones
L:1/8
Q:1/4=90
M:4/4
I:linebreak $
K:Em
E | E2 B>B B>AG>A | B2 (3BAG A>GE>E | A3 B AG EF | G2 A2 B4 |"^(a)" E>F G>A Be !fermata! e>d |$
A2 A>G FA !fermata!d2 | G2 FE (3B2 B2 A2 | G2 F2 E4 || E | E2 B>B B>AG>A | B2 (3BAG A>GE>E |$
A3 B AG EF | G2 A2 B4 |"^(a) var." E>F G>A Be !fermata!e/d/^c | A2 A>G FA !fermata!d2 |
G2 FE (3B2 B2 A2 | G2 F2 E4 |]

